X: 1
T: Tommy Peoples' Reel
M: C|
R: Reel
K: G
AF\
||  G2BG cABG | ADDE FGAF | G2BG cABG | Addc AGFD |
| G3B cABG |  ADD2 FGAF | G2BG cABG | Addc AGBd  ||
||  g2dg egdg | g2bg fgaf | g2dg egdB | cBAc BGBd |
| g2dg egdg |  g2bg fgaf | g2dg egdB | cBAc BGAF  ||
